images/instagram.svg

<svg width="30" height="30" viewBox="0 0 30 30" fill="none" xmlns="http://www.w3.org/2000/svg">
<path d="M17.8711 15C17.8711 16.5857 16.5857 17.8711 15 17.8711C13.4143 17.8711 12.1289 16.5857 12.1289 15C12.1289 13.4143 13.4143 12.1289 15 12.1289C16.5857 12.1289 17.8711 13.4143 17.8711 15Z" fill="#C5AC2D"/>
<path d="M21.7144 9.92015C21.5764 9.54616 21.3562 9.20764 21.0701 8.92978C20.7923 8.64368 20.454 8.42349 20.0797 8.28548C19.7762 8.1676 19.3203 8.0273 18.4805 7.98907C17.5721 7.94765 17.2997 7.93872 14.9999 7.93872C12.6999 7.93872 12.4275 7.94742 11.5193 7.98885C10.6796 8.0273 10.2234 8.1676 9.92014 8.28548C9.54591 8.42349 9.2074 8.64368 8.92976 8.92978C8.64366 9.20764 8.42348 9.54593 8.28523 9.92015C8.16736 10.2236 8.02705 10.6798 7.98883 11.5196C7.9474 12.4278 7.93848 12.7001 7.93848 15.0002C7.93848 17.3 7.9474 17.5724 7.98883 18.4808C8.02705 19.3206 8.16736 19.7765 8.28523 20.08C8.42348 20.4542 8.64343 20.7925 8.92953 21.0704C9.2074 21.3565 9.54568 21.5766 9.91991 21.7147C10.2234 21.8328 10.6796 21.9731 11.5193 22.0113C12.4275 22.0527 12.6997 22.0614 14.9997 22.0614C17.3 22.0614 17.5723 22.0527 18.4803 22.0113C19.3201 21.9731 19.7762 21.8328 20.0797 21.7147C20.8309 21.4249 21.4247 20.8312 21.7144 20.08C21.8323 19.7765 21.9726 19.3206 22.011 18.4808C22.0525 17.5724 22.0612 17.3 22.0612 15.0002C22.0612 12.7001 22.0525 12.4278 22.011 11.5196C21.9728 10.6798 21.8325 10.2236 21.7144 9.92015ZM14.9999 19.4229C12.5571 19.4229 10.5768 17.4428 10.5768 15C10.5768 12.5571 12.5571 10.577 14.9999 10.577C17.4426 10.577 19.4229 12.5571 19.4229 15C19.4229 17.4428 17.4426 19.4229 14.9999 19.4229ZM19.5977 11.4358C19.0269 11.4358 18.5641 10.973 18.5641 10.4022C18.5641 9.83134 19.0269 9.36855 19.5977 9.36855C20.1685 9.36855 20.6313 9.83134 20.6313 10.4022C20.6311 10.973 20.1685 11.4358 19.5977 11.4358Z" fill="#C5AC2D"/>
<path d="M15 0C6.717 0 0 6.717 0 15C0 23.283 6.717 30 15 30C23.283 30 30 23.283 30 15C30 6.717 23.283 0 15 0ZM23.5613 18.5511C23.5197 19.468 23.3739 20.094 23.161 20.6419C22.7135 21.7989 21.7989 22.7135 20.6419 23.161C20.0942 23.3739 19.468 23.5194 18.5513 23.5613C17.6328 23.6032 17.3394 23.6133 15.0002 23.6133C12.6608 23.6133 12.3676 23.6032 11.4489 23.5613C10.5322 23.5194 9.90601 23.3739 9.35829 23.161C8.78334 22.9447 8.26286 22.6057 7.83257 22.1674C7.39449 21.7374 7.05551 21.2167 6.83922 20.6419C6.62636 20.0942 6.48056 19.468 6.4389 18.5513C6.39656 17.6326 6.38672 17.3392 6.38672 15C6.38672 12.6608 6.39656 12.3674 6.43867 11.4489C6.48033 10.532 6.6259 9.90601 6.83876 9.35806C7.05505 8.78334 7.39426 8.26263 7.83257 7.83257C8.26263 7.39426 8.78334 7.05528 9.35806 6.83899C9.90601 6.62613 10.532 6.48056 11.4489 6.43867C12.3674 6.39679 12.6608 6.38672 15 6.38672C17.3392 6.38672 17.6326 6.39679 18.5511 6.4389C19.468 6.48056 20.094 6.62613 20.6419 6.83876C21.2167 7.05505 21.7374 7.39426 22.1677 7.83257C22.6057 8.26286 22.9449 8.78334 23.161 9.35806C23.3741 9.90601 23.5197 10.532 23.5616 11.4489C23.6034 12.3674 23.6133 12.6608 23.6133 15C23.6133 17.3392 23.6034 17.6326 23.5613 18.5511Z" fill="#C5AC2D"/>
</svg>

<svg width="30" height="30" fill="none" xmlns="http://www.w3.org/2000/svg"><path d="M17.871 15a2.871 2.871 0 11-5.742 0 2.871 2.871 0 015.742 0z" fill="#C5AC2D"/><path d="M21.714 9.92a2.669 2.669 0 00-.644-.99 2.666 2.666 0 00-.99-.645c-.304-.117-.76-.258-1.6-.296-.908-.041-1.18-.05-3.48-.05s-2.572.008-3.48.05c-.84.038-1.297.179-1.6.296a2.665 2.665 0 00-.99.645 2.67 2.67 0 00-.645.99c-.118.304-.258.76-.296 1.6-.042.908-.05 1.18-.05 3.48s.008 2.572.05 3.48c.038.84.178 1.296.296 1.6.138.374.358.713.645.99.277.287.616.507.99.645.303.118.76.258 1.6.296.908.042 1.18.05 3.48.05s2.572-.008 3.48-.05c.84-.038 1.296-.178 1.6-.296a2.852 2.852 0 001.634-1.635c.118-.303.259-.76.297-1.6.041-.908.05-1.18.05-3.48s-.009-2.572-.05-3.48c-.038-.84-.178-1.296-.297-1.6zM15 19.423a4.423 4.423 0 110-8.846 4.423 4.423 0 010 8.846zm4.598-7.987a1.034 1.034 0 110-2.068 1.034 1.034 0 010 2.068z" fill="#C5AC2D"/><path d="M15 0C6.717 0 0 6.717 0 15c0 8.283 6.717 15 15 15 8.283 0 15-6.717 15-15 0-8.283-6.717-15-15-15zm8.561 18.551c-.041.917-.187 1.543-.4 2.09a4.404 4.404 0 01-2.52 2.52c-.547.213-1.173.358-2.09.4-.918.042-1.212.052-3.55.052-2.34 0-2.633-.01-3.552-.052-.917-.042-1.543-.187-2.09-.4a4.22 4.22 0 01-1.526-.994 4.22 4.22 0 01-.994-1.525c-.213-.548-.358-1.174-.4-2.09-.042-.92-.052-1.213-.052-3.552 0-2.34.01-2.633.052-3.551.041-.917.187-1.543.4-2.09a4.22 4.22 0 01.994-1.526c.43-.439.95-.778 1.525-.994.548-.213 1.174-.358 2.09-.4.92-.042 1.213-.052 3.552-.052 2.34 0 2.633.01 3.551.052.917.042 1.543.187 2.09.4a4.222 4.222 0 011.527.994c.438.43.777.95.993 1.525.213.548.359 1.174.4 2.09.042.92.052 1.213.052 3.552 0 2.34-.01 2.633-.052 3.551z" fill="#C5AC2D"/></svg>
